X:535
T: Byrne's Quick Step
S: B.Breathnach:"Ceol Rince na hEireann" IV/35 (gan ainm)
Z: B.Black
L: 1/8
M: 9/8
R: slipjig
K: G
G2g dBG GFG|EFG ABG FED|G2g dBG GFG|EFG AGF G3 :|
AFD AFD DEF|GAB Ac/d/c BAG|AFD AFD DEF|GAB cAF G3 :|
